src/assets/icons/drawer/icon-home.svg

<svg xmlns="http://www.w3.org/2000/svg" width="48" height="48" fill="#43bbff" xmlns:v="https://vecta.io/nano"><path opacity=".35" d="M36 42H12a6 6 0 0 1-6-6V17.53a6 6 0 0 1 3.086-5.244l12-6.666c1.812-1.006 4.016-1.006 5.828 0l12 6.666A6 6 0 0 1 42 17.53V36a6 6 0 0 1-6 6z"/><path d="M30 42H18V30a4 4 0 0 1 4-4h4a4 4 0 0 1 4 4v12z"/></svg>

<svg width="48" height="48" viewBox="0 0 48 48" fill="none" xmlns="http://www.w3.org/2000/svg">
<path opacity="0.35" d="M36 42H12C8.686 42 6 39.314 6 36V17.53C6 15.35 7.182 13.344 9.086 12.286L21.086 5.61998C22.898 4.61398 25.102 4.61398 26.914 5.61998L38.914 12.286C40.818 13.344 42 15.352 42 17.53V36C42 39.314 39.314 42 36 42Z" fill="#43BBFF"/>
<path d="M30 42H18V30C18 27.79 19.79 26 22 26H26C28.21 26 30 27.79 30 30V42Z" fill="#43BBFF"/>
</svg>
